X: 1
T:Fir Na Fhata
M:3/4
L:1/8
Q:180
C:Traditional
R:Waltz
N:Fourth in set with "Skye Boat", "Mist Covered Mountain","Castle
N:Bay","Fir Na Fhata","Skye Boat
Z:Donna Diekof
K:C
AB|:"C"c6|c4 g2| e3 d c2|"G"B6|d6|e4 d2|"Am"A6|A4 c2|
B4 A2|"Em"G6|E6|E4G2|!
|"F"A6|A6|G4 A2|"C"c6|"G"d6|z2 a2g2|"Am"e6|"G"d4 c2|
"Em"B3 A G2|"F"A6|A6|A4 AB:|
% Output from ABC2Win  Version 2.1  on 2/10/98
